X:1
T:" Cash Cruncher" - AltRock4.sty demo
L:1/8
K:C
Q:1/4=125
R:POP AMERICAN GUITARRA 120RS
M:4/4
| "C7" z8 | z8 | "C7" z8 | z8 |
| "C7" z2 _Bc c2 _BG | _B2 cG- G2 F_E | "Gm7"F6 GF- | F4  z4 |
| "C7" z G G_B _B2 _BG | _B2 (3cFG- G2 FD | "Gm7"D2 CD- D2 FD- | D4  z4 |
| "C7" z2 c2 d2 cc- | "Bb"c2 _Bc- c2 _B2 | "F"_B A2 A- A G2 A- | A6 c2 |
| "C"c6 (3cfg- | "Bb"g4- "C"g2 fg | "Ab"g _a3 _a2 _bf- | "Gm"f8 |
| "C" z2  z c f g3- | "Bb"(3g4 f2 "C"fgfg | "Ab"_a2 g_a- _a _b2 _b- | "Bb"_b4- _bg_bc' |
| "C7"c'8- | c'6  z2 | "C5" z8 | z8 |

